tools/photo.CUBE
#Created by: Adobe Photoshop Export Color Lookup Plugin
#Copyright: (C) Copyright 2025 yoki
TITLE "料理用"
#LUT size
LUT_3D_SIZE 8
#data domain
#LUT data points
DOMAIN_MIN 0.000000 0.000000 0.000000
DOMAIN_MAX 0.903226 0.903226 0.903226
0.081573 0.090179 0.098236
0.188660 0.088531 0.094818
0.301758 0.088196 0.090302
0.430542 0.084137 0.081573
0.575287 0.081573 0.081573
0.719299 0.081573 0.081573
0.857208 0.081573 0.081573
0.974670 0.081573 0.081573
0.081573 0.191742 0.097626
0.187134 0.191467 0.088501
0.298157 0.193817 0.084259
0.424896 0.198364 0.081573
0.567902 0.202179 0.081573
0.714996 0.206604 0.081573
0.852448 0.211334 0.081573
0.973694 0.213013 0.081573
0.081573 0.308746 0.103210
0.179047 0.309937 0.089478
0.308655 0.311035 0.088867
0.435638 0.314392 0.083008
0.572754 0.323090 0.081573
0.715912 0.332306 0.081573
0.850586 0.339874 0.081573
0.972656 0.344543 0.081573
0.081573 0.445435 0.116180
0.176758 0.445862 0.094757
0.321045 0.445984 0.090607
0.454651 0.448120 0.090179
0.597260 0.451752 0.083771
0.736450 0.460388 0.081573
0.864136 0.467712 0.081573
0.975128 0.473602 0.081573
0.101776 0.597778 0.128815
0.195984 0.598541 0.107117
0.334473 0.599487 0.098907
0.479401 0.597839 0.093781
0.621429 0.598419 0.093109
0.761536 0.600464 0.089233
0.882660 0.602509 0.081573
0.979004 0.608307 0.081573
0.144867 0.743439 0.144440
0.230225 0.745361 0.121674
0.348206 0.746002 0.108063
0.489868 0.742218 0.101654
0.637360 0.741302 0.096802
0.774719 0.738983 0.092529
0.887268 0.737000 0.090515
0.979004 0.736450 0.081573
0.162109 0.871582 0.144867
0.249969 0.873474 0.136475
0.357086 0.874054 0.110809
0.495361 0.871368 0.103943
0.645630 0.866180 0.083893
0.781952 0.863556 0.085510
0.887268 0.860046 0.081573
0.979004 0.856049 0.081573
0.173065 0.978912 0.149200
0.257782 0.979004 0.137115
0.359100 0.979004 0.110657
0.492584 0.977783 0.087524
0.638702 0.976288 0.081573
0.782715 0.970215 0.081573
0.887268 0.966156 0.081573
0.979004 0.961670 0.081573
0.081573 0.095917 0.193481
0.166382 0.095673 0.199768
0.281097 0.096954 0.212982
0.414490 0.097748 0.217621
0.563263 0.096283 0.210236
0.712372 0.091125 0.201141
0.854248 0.090393 0.188385
0.975525 0.087524 0.178314
0.081573 0.191711 0.193359
0.178131 0.192505 0.193817
0.300720 0.185425 0.187653
0.430237 0.179749 0.178802
0.575317 0.174805 0.165070
0.723663 0.167755 0.150330
0.862762 0.166473 0.147797
0.977814 0.150391 0.147247
0.081573 0.309570 0.209106
0.153168 0.313965 0.185333
0.310120 0.316437 0.178101
0.434326 0.312988 0.172211
0.573730 0.316284 0.164490
0.721008 0.320160 0.153534
0.856812 0.321960 0.147797
0.977234 0.322174 0.147247
0.081573 0.445465 0.224243
0.150085 0.449799 0.194885
0.306915 0.451355 0.177399
0.458221 0.453461 0.177155
0.598236 0.452271 0.172546
0.733887 0.457458 0.152985
0.863220 0.463409 0.147797
0.975952 0.467987 0.147247
0.102936 0.596588 0.237762
0.184845 0.600159 0.208649
0.321533 0.602356 0.183685
0.474396 0.601898 0.181030
0.622162 0.601837 0.181000
0.761230 0.599060 0.174896
0.882324 0.601990 0.153595
0.979218 0.605133 0.147247
0.146240 0.744171 0.250763
0.218842 0.746124 0.217957
0.332977 0.747650 0.196136
0.482544 0.744995 0.185669
0.635193 0.743317 0.181122
0.775085 0.740723 0.177826
0.887878 0.737976 0.176605
0.979218 0.735931 0.148682
0.164124 0.872162 0.257294
0.233643 0.873291 0.227173
0.346375 0.875366 0.201599
0.483154 0.873230 0.187073
0.640045 0.867676 0.176331
0.778961 0.864929 0.172272
0.887878 0.861603 0.170288
0.979218 0.855682 0.158386
0.173676 0.978668 0.257996
0.243225 0.978577 0.226471
0.350067 0.979218 0.201477
0.480347 0.978577 0.178284
0.633575 0.976776 0.159088
0.778992 0.970673 0.149689
0.886780 0.966431 0.147095
0.979218 0.962646 0.146332
0.081573 0.100769 0.302490
0.166382 0.104462 0.306976
0.260406 0.103577 0.312622
0.396118 0.107727 0.331848
0.541260 0.114349 0.350006
0.692444 0.119415 0.353973
0.837891 0.122345 0.353180
0.967957 0.121277 0.346710
0.081573 0.196075 0.294891
0.152496 0.182678 0.303772
0.275635 0.184082 0.315125
0.408325 0.186066 0.327606
0.552216 0.190704 0.337891
0.705017 0.192993 0.338165
0.846283 0.194458 0.331757
0.972961 0.192871 0.323578
0.081573 0.309418 0.309021
0.153595 0.314331 0.313568
0.298462 0.314331 0.311646
0.434082 0.309570 0.310791
0.580536 0.302856 0.300812
0.726044 0.296509 0.291534
0.866211 0.291382 0.277771
0.979675 0.286835 0.261871
0.081573 0.445618 0.334259
0.149719 0.449799 0.327789
0.282471 0.457092 0.304932
0.456696 0.458618 0.292572
0.595459 0.452637 0.295258
0.734344 0.451508 0.283417
0.867645 0.450073 0.272186
0.977722 0.443909 0.256104
0.098602 0.596222 0.354218
0.184143 0.600586 0.345459
0.297028 0.605804 0.311096
0.461700 0.607849 0.289398
0.624329 0.608307 0.289978
0.758972 0.600006 0.288239
0.880646 0.598816 0.275360
0.979675 0.599792 0.262054
0.143127 0.743591 0.370575
0.214935 0.745697 0.359528
0.313324 0.749084 0.320679
0.457642 0.750977 0.292450
0.627930 0.746979 0.286133
0.776093 0.745056 0.286224
0.888489 0.737335 0.283783
0.979675 0.733948 0.268646
0.161682 0.871521 0.378357
0.234375 0.871857 0.364960
0.327606 0.874939 0.325043
0.460358 0.875702 0.294495
0.623199 0.871613 0.283142
0.775421 0.867096 0.278534
0.889252 0.864716 0.277222
0.979706 0.856110 0.272858
0.174042 0.978333 0.376434
0.244202 0.978577 0.363312
0.334198 0.979095 0.318817
0.460052 0.979736 0.292542
0.615143 0.977844 0.275085
0.771515 0.972015 0.262634
0.885468 0.968048 0.254578
0.979736 0.964081 0.251251
0.081573 0.105743 0.422729
0.166382 0.110779 0.427368
0.260406 0.112762 0.426544
0.368286 0.116119 0.440704
0.525879 0.124023 0.464905
0.675751 0.132324 0.491211
0.813873 0.141571 0.507751
0.946869 0.147461 0.512756
0.081573 0.202209 0.412720
0.148743 0.184387 0.422821
0.256500 0.189056 0.432281
0.387909 0.191284 0.443787
0.537231 0.198578 0.463562
0.683167 0.205627 0.486664
0.822510 0.212158 0.498810
0.956146 0.216309 0.499023
0.081573 0.313599 0.423279
0.148743 0.310791 0.423798
0.240845 0.296783 0.433105
0.409698 0.301300 0.448761
0.559662 0.306610 0.462250
0.704468 0.308441 0.472717
0.842804 0.309570 0.473297
0.970276 0.307861 0.469910
0.084656 0.446716 0.443176
0.158569 0.451599 0.447174
0.288544 0.457550 0.450989
0.441376 0.452942 0.447021
0.592560 0.451202 0.450623
0.741974 0.443695 0.439758
0.871918 0.433105 0.430450
0.980225 0.425354 0.419281
0.104156 0.597382 0.474152
0.188599 0.601135 0.472107
0.297028 0.607391 0.464417
0.434021 0.610474 0.441620
0.622467 0.612823 0.426086
0.754913 0.602478 0.432220
0.877167 0.595764 0.417297
0.980225 0.587341 0.400848
0.142517 0.744507 0.493591
0.217163 0.746063 0.488770
0.313660 0.749573 0.475403
0.437408 0.752747 0.439240
0.611237 0.751770 0.414459
0.773621 0.749969 0.412628
0.889496 0.737274 0.414825
0.980225 0.732849 0.401398
0.159332 0.871399 0.505096
0.230408 0.871704 0.498596
0.325836 0.874115 0.478424
0.441284 0.876221 0.436127
0.598267 0.876190 0.407410
0.768280 0.870056 0.400146
0.891022 0.867218 0.397919
0.980347 0.855103 0.395721
0.170593 0.977783 0.509521
0.241791 0.978302 0.499512
0.331146 0.978546 0.477997
0.439178 0.979553 0.436584
0.587311 0.979553 0.398438
0.754395 0.975861 0.387329
0.883209 0.970490 0.380524
0.980469 0.965759 0.377533
0.081573 0.113739 0.554871
0.166382 0.117950 0.559875
0.260406 0.122620 0.561798
0.363708 0.127625 0.564789
0.502838 0.133392 0.584564
0.660889 0.144287 0.612061
0.801971 0.151367 0.636810
0.931366 0.157043 0.660461
0.081573 0.209137 0.546478
0.147461 0.190002 0.554871
0.253693 0.195770 0.565399
0.362122 0.200836 0.566742
0.518494 0.206512 0.587311
0.668701 0.215057 0.609406
0.809143 0.222382 0.634918
0.935577 0.228455 0.656738
0.081573 0.321716 0.543030
0.147461 0.315033 0.548645
0.233154 0.294495 0.563416
0.356323 0.303925 0.578003
0.540497 0.306610 0.593201
0.688629 0.314301 0.609650
0.825226 0.318665 0.630157
0.946960 0.321503 0.643585
0.084229 0.450745 0.568359
0.152557 0.449921 0.570587
0.239502 0.446289 0.571442
0.361542 0.434204 0.578644
0.571472 0.438751 0.597961
0.718140 0.444946 0.609802
0.847290 0.440948 0.616882
0.966675 0.437561 0.617889
0.128571 0.598541 0.590881
0.208038 0.602112 0.593506
0.311829 0.608612 0.597717
0.442657 0.612701 0.601837
0.606201 0.605377 0.594360
0.750336 0.602081 0.597046
0.879822 0.591278 0.587189
0.980530 0.579590 0.578003
0.146240 0.744934 0.624298
0.219330 0.746552 0.622437
0.314819 0.748840 0.617493
0.437897 0.753296 0.605835
0.589661 0.754669 0.585785
0.770660 0.752777 0.566986
0.887421 0.741791 0.574127
0.980530 0.733917 0.555359
0.161713 0.872101 0.636505
0.232819 0.872833 0.631439
0.325928 0.873901 0.623047
0.439209 0.875427 0.605011
0.578766 0.877930 0.573456
0.753754 0.874329 0.546448
0.892059 0.870026 0.541168
0.980774 0.856506 0.546265
0.171661 0.977966 0.639465
0.240356 0.977936 0.635193
0.329681 0.978455 0.623657
0.437775 0.979248 0.601532
0.568787 0.979675 0.562683
0.729004 0.979095 0.531952
0.880096 0.972076 0.523346
0.981140 0.968201 0.518433
0.081573 0.122437 0.686584
0.166382 0.127319 0.691376
0.260406 0.131927 0.695007
0.363708 0.138885 0.695984
0.476105 0.147339 0.706818
0.642944 0.153259 0.728973
0.788025 0.163452 0.753967
0.918915 0.170898 0.777100
0.081573 0.217834 0.680054
0.146851 0.197266 0.685974
0.252411 0.203278 0.694824
0.360046 0.212158 0.701019
0.475250 0.218964 0.708160
0.654572 0.224762 0.730957
0.796722 0.233704 0.754486
0.923737 0.240295 0.775085
0.081573 0.329681 0.674622
0.146851 0.322479 0.680298
0.229492 0.298431 0.692017
0.349884 0.307678 0.707245
0.472504 0.314789 0.713135
0.673767 0.318512 0.735138
0.810760 0.327545 0.752808
0.934998 0.331696 0.772919
0.081573 0.458954 0.684540
0.146851 0.456390 0.684662
0.229492 0.447174 0.690155
0.329895 0.429016 0.706848
0.482056 0.436493 0.722473
0.700775 0.438751 0.740326
0.834015 0.445221 0.751770
0.950928 0.443268 0.766113
0.139496 0.601532 0.709717
0.206665 0.601501 0.712250
0.292145 0.600494 0.719177
0.405853 0.595398 0.717377
0.539520 0.587860 0.724152
0.727295 0.588348 0.740967
0.858765 0.590546 0.750763
0.970581 0.583832 0.758423
0.166687 0.742950 0.731384
0.239380 0.744934 0.734131
0.333221 0.750519 0.737823
0.449066 0.752228 0.739014
0.597748 0.754059 0.739014
0.756622 0.746948 0.734375
0.883789 0.742523 0.733337
0.980499 0.732666 0.727844
0.166260 0.871704 0.764679
0.237640 0.873077 0.763428
0.326233 0.873535 0.760040
0.440155 0.875305 0.750885
0.581146 0.876617 0.738861
0.737335 0.875214 0.722229
0.890930 0.871338 0.706360
0.980499 0.860748 0.708496
0.172211 0.977417 0.767822
0.242676 0.977661 0.763916
0.332733 0.978149 0.757111
0.437683 0.978943 0.746826
0.568634 0.979370 0.730621
0.719147 0.979156 0.705780
0.870544 0.974396 0.680359
0.981537 0.969513 0.675568
0.081573 0.133026 0.809357
0.166382 0.135406 0.811829
0.260406 0.141724 0.817383
0.363708 0.149841 0.819794
0.476105 0.159271 0.822968
0.586304 0.166779 0.840271
0.776520 0.173279 0.861572
0.907898 0.182556 0.882690
0.081573 0.226471 0.802216
0.146545 0.206055 0.808105
0.251678 0.212097 0.816345
0.358917 0.220551 0.821533
0.473694 0.229584 0.826416
0.592987 0.238373 0.842621
0.784424 0.242340 0.863403
0.914093 0.250427 0.882294
0.081573 0.338196 0.797180
0.146545 0.329987 0.802673
0.227448 0.304810 0.812042
0.346375 0.314148 0.826172
0.467407 0.322723 0.832520
0.617828 0.328857 0.842560
0.799713 0.332733 0.866516
0.922943 0.339752 0.881073
0.081573 0.467285 0.796600
0.146545 0.463226 0.800140
0.227448 0.449707 0.807617
0.323425 0.428345 0.822754
0.455933 0.439240 0.841705
0.636719 0.444092 0.848175
0.819153 0.443237 0.866852
0.938263 0.448669 0.879639
0.091675 0.608673 0.823975
0.157532 0.607178 0.824249
0.244843 0.601837 0.822296
0.340607 0.590851 0.821655
0.463715 0.578033 0.838043
0.653748 0.583862 0.856232
0.840607 0.581390 0.869446
0.957428 0.583618 0.876892
0.185486 0.744415 0.834442
0.251556 0.743408 0.836151
0.336395 0.742554 0.840729
0.435486 0.740936 0.848572
0.563446 0.737793 0.849091
0.704926 0.734558 0.851868
0.864716 0.734619 0.865356
0.977234 0.730804 0.872101
0.187592 0.870636 0.859192
0.257111 0.871674 0.858459
0.345795 0.872589 0.859100
0.453461 0.874786 0.860596
0.589172 0.875732 0.861633
0.743927 0.874420 0.858337
0.882507 0.867432 0.853912
0.980042 0.862732 0.853973
0.175873 0.977356 0.883301
0.244324 0.977478 0.881439
0.333618 0.978058 0.879120
0.439758 0.978912 0.874603
0.570526 0.979370 0.866150
0.720764 0.977631 0.853210
0.862885 0.975250 0.841858
0.981171 0.970184 0.825562
0.081573 0.142059 0.918304
0.166382 0.146088 0.924469
0.260406 0.151306 0.928802
0.363708 0.159454 0.931458
0.476105 0.170441 0.937378
0.586304 0.179260 0.943298
0.734619 0.187378 0.964478
0.897827 0.189850 0.976990
0.081573 0.235291 0.914093
0.146332 0.215515 0.919739
0.251282 0.221069 0.926514
0.358276 0.231110 0.935883
0.472809 0.239319 0.937378
0.584717 0.248627 0.943787
0.745819 0.256500 0.964508
0.904358 0.258636 0.977234
0.081573 0.346924 0.910797
0.146332 0.337860 0.914185
0.226227 0.312286 0.921722
0.344269 0.321747 0.936066
0.464355 0.331787 0.943604
0.580688 0.338989 0.948517
0.760895 0.345520 0.966125
0.911957 0.345947 0.977844
0.081573 0.475616 0.907776
0.146332 0.470703 0.911804
0.226227 0.456055 0.918274
0.319489 0.431030 0.930054
0.449768 0.442566 0.948730
0.573761 0.448822 0.953888
0.776794 0.450562 0.964996
0.925140 0.452728 0.979248
0.081573 0.616211 0.917816
0.146332 0.612640 0.917633
0.226227 0.604248 0.917023
0.319489 0.590271 0.926270
0.430542 0.573456 0.942596
0.564606 0.581909 0.961578
0.794769 0.580444 0.964783
0.941986 0.580200 0.979095
0.146637 0.750061 0.949554
0.213409 0.748749 0.949310
0.299408 0.745636 0.947571
0.400055 0.739105 0.944794
0.521881 0.730804 0.940216
0.656586 0.726837 0.953918
0.804138 0.729645 0.968597
0.964874 0.722778 0.977417
0.205688 0.869659 0.943146
0.273071 0.868713 0.943756
0.359131 0.867676 0.946625
0.461487 0.865784 0.950653
0.576202 0.862061 0.958160
0.712860 0.861389 0.957672
0.845520 0.862427 0.958405
0.977936 0.858307 0.968811
0.196167 0.976990 0.965485
0.265411 0.976959 0.964996
0.351776 0.977844 0.965027
0.456116 0.978943 0.965454
0.582764 0.977844 0.962646
0.728119 0.977081 0.961090
0.867645 0.973389 0.956421
0.979004 0.968719 0.953247
