tools/photo.CUBE
#Created by: Adobe Photoshop Export Color Lookup Plugin
#Copyright: (C) Copyright 2025 yoki
TITLE "料理用"
#LUT size
LUT_3D_SIZE 5
#data domain
#LUT data points
DOMAIN_MIN 0.000000 0.000000 0.000000
DOMAIN_MAX 0.903226 0.903226 0.903226
0.081573 0.090179 0.098236
0.272705 0.088531 0.091980
0.500244 0.082153 0.081573
0.755432 0.081573 0.081573
0.974670 0.081573 0.081573
0.081573 0.277374 0.101807
0.276459 0.279449 0.088531
0.497192 0.288574 0.081573
0.748138 0.303864 0.081573
0.972443 0.311737 0.081573
0.081573 0.519165 0.122162
0.292480 0.521179 0.095734
0.535370 0.521942 0.091278
0.781311 0.529358 0.081573
0.978058 0.539246 0.081573
0.149506 0.777496 0.147980
0.318481 0.780518 0.112152
0.567474 0.774384 0.093811
0.807343 0.771454 0.090820
0.979004 0.767487 0.081573
0.173065 0.978912 0.149200
0.329773 0.979004 0.119843
0.564545 0.977356 0.082397
0.812042 0.969177 0.081573
0.979004 0.961670 0.081573
0.081573 0.099030 0.273712
0.236053 0.101074 0.282990
0.469238 0.108612 0.314850
0.735657 0.115173 0.314972
0.972382 0.110687 0.305298
0.081573 0.278168 0.278168
0.266479 0.281982 0.280487
0.503754 0.270569 0.269745
0.761902 0.261475 0.250061
0.979553 0.252502 0.219147
0.083923 0.518890 0.315247
0.253265 0.527924 0.278564
0.539795 0.530487 0.259613
0.778381 0.526184 0.250488
0.977295 0.528595 0.233276
0.148651 0.777283 0.342346
0.290863 0.781281 0.294861
0.548431 0.780365 0.260071
0.808350 0.775238 0.257355
0.979553 0.766541 0.238129
0.174530 0.978333 0.345551
0.309509 0.978912 0.296082
0.539215 0.978607 0.252411
0.805695 0.971222 0.232727
0.979553 0.963226 0.217682
0.081573 0.109741 0.486969
0.236053 0.116699 0.492004
0.435760 0.123871 0.510132
0.705139 0.139435 0.557098
0.934967 0.155151 0.590790
0.081573 0.287415 0.475555
0.212067 0.264526 0.493774
0.466064 0.273865 0.518433
0.723785 0.283447 0.550598
0.952881 0.291412 0.567200
0.099518 0.520142 0.514008
0.266968 0.530060 0.522675
0.523712 0.528412 0.519836
0.778717 0.519592 0.517944
0.980408 0.499176 0.492889
0.149445 0.778015 0.560577
0.290436 0.780579 0.550323
0.507782 0.786499 0.508728
0.807312 0.783905 0.482422
0.980408 0.766327 0.477844
0.171387 0.978027 0.573944
0.305847 0.977966 0.556915
0.500305 0.979614 0.495300
0.783691 0.975616 0.453094
0.980804 0.966644 0.445068
0.081573 0.124939 0.718231
0.236053 0.133240 0.727020
0.418823 0.145660 0.729523
0.678497 0.158783 0.764038
0.915649 0.173584 0.804657
0.081573 0.301514 0.706970
0.206940 0.271759 0.720093
0.411469 0.287964 0.739563
0.702057 0.298584 0.769318
0.928741 0.308594 0.801025
0.082306 0.531403 0.729401
0.209778 0.525055 0.727234
0.390198 0.503540 0.745941
0.745880 0.509521 0.776276
0.956207 0.510773 0.793060
0.173126 0.776611 0.764832
0.309326 0.781250 0.767914
0.518280 0.785492 0.771881
0.790558 0.778992 0.766052
0.980408 0.767456 0.762543
0.172852 0.977661 0.797852
0.306641 0.978302 0.791870
0.500641 0.979553 0.773438
0.756256 0.978577 0.742432
0.981537 0.969116 0.714294
0.081573 0.142059 0.918304
0.236053 0.148834 0.926514
0.418823 0.164795 0.933319
0.612396 0.180695 0.947540
0.897827 0.189850 0.976990
0.081573 0.317261 0.911499
0.205170 0.285248 0.920197
0.407043 0.302460 0.939758
0.613373 0.316284 0.950165
0.910431 0.322540 0.977661
0.081573 0.543549 0.906830
0.205170 0.532532 0.914612
0.372467 0.498688 0.934296
0.615936 0.513489 0.959747
0.933533 0.511902 0.979004
0.171204 0.781067 0.950836
0.294281 0.778229 0.953644
0.474152 0.769531 0.949005
0.709564 0.763550 0.955933
0.967316 0.758606 0.975403
0.196167 0.976990 0.965485
0.330017 0.977661 0.965149
0.516174 0.978699 0.964264
0.763123 0.976593 0.960632
0.979004 0.968719 0.953247
