tools/photo.CUBE
#Created by: Adobe Photoshop Export Color Lookup Plugin
#Copyright: (C) Copyright 2025 yoki
TITLE "料理用"
#LUT size
LUT_3D_SIZE 32
#data domain
DOMAIN_MIN 0.0 0.0 0.0
DOMAIN_MAX 1.0 1.0 1.0
#LUT data points
0.081573 0.090179 0.098236
0.106812 0.088989 0.098602
0.133636 0.088654 0.099609
0.160767 0.088531 0.097992
0.188660 0.088531 0.094818
0.216644 0.088531 0.091370
0.244263 0.088531 0.090485
0.272705 0.088531 0.091980
0.301758 0.088196 0.090302
0.332520 0.087524 0.087036
0.364014 0.086639 0.085114
0.396667 0.085022 0.081573
0.430542 0.084137 0.081573
0.465179 0.083038 0.081573
0.500244 0.082153 0.081573
0.536621 0.081573 0.081573
0.575287 0.081573 0.081573
0.611725 0.081573 0.081573
0.648682 0.081573 0.081573
0.683990 0.081573 0.081573
0.719299 0.081573 0.081573
0.755432 0.081573 0.081573
0.790161 0.081573 0.081573
0.823151 0.081573 0.081573
0.857208 0.081573 0.081573
0.889862 0.081573 0.081573
0.920868 0.081573 0.081573
0.950226 0.081573 0.081573
0.974670 0.081573 0.081573
1.000000 0.091064 0.081573
1.000000 0.091064 0.081573
1.000000 0.091064 0.081573
0.081573 0.114410 0.096893
0.104248 0.113800 0.092255
0.131042 0.113464 0.093231
0.158203 0.113525 0.093658
0.185974 0.113617 0.091339
0.213837 0.113739 0.089233
0.241211 0.114044 0.089935
0.269867 0.114105 0.091431
0.299561 0.114014 0.089966
0.330353 0.113190 0.086700
0.361969 0.111877 0.085114
0.394714 0.110352 0.081573
0.428802 0.109589 0.081573
0.463287 0.107269 0.081573
0.498260 0.105469 0.081573
0.534149 0.106323 0.081573
0.572601 0.106628 0.081573
0.609894 0.106140 0.081573
0.646881 0.106201 0.081573
0.683319 0.108582 0.081573
0.718292 0.108704 0.081573
0.753235 0.109222 0.081573
0.788849 0.109711 0.081573
0.823578 0.110809 0.081573
0.857269 0.110809 0.081573
0.889191 0.110748 0.081573
0.920258 0.110626 0.081573
0.949921 0.110016 0.081573
0.974396 0.110016 0.081573
1.000000 0.116943 0.081573
1.000000 0.116943 0.081573
1.000000 0.116943 0.081573
0.081573 0.139557 0.097870
0.104248 0.138977 0.093231
0.131378 0.138641 0.089966
0.158539 0.138702 0.090363
0.185394 0.138794 0.088287
0.212860 0.138916 0.086273
0.239716 0.139862 0.085663
0.267883 0.140594 0.085876
0.297729 0.140625 0.085205
0.328674 0.139984 0.083069
0.360901 0.139832 0.083069
0.394379 0.139771 0.081573
0.428650 0.138672 0.081573
0.463287 0.136047 0.081573
0.498535 0.135559 0.081573
0.534485 0.136719 0.081573
0.571960 0.137390 0.081573
0.609192 0.136993 0.081573
0.645905 0.137939 0.081573
0.682343 0.140778 0.081573
0.717316 0.141754 0.081573
0.751770 0.142578 0.081573
0.786865 0.143402 0.081573
0.821777 0.145355 0.081573
0.855621 0.146179 0.081573
0.887848 0.145813 0.081573
0.919250 0.145294 0.081573
0.949158 0.144989 0.081573
0.974396 0.145996 0.081573
1.000000 0.152924 0.081573
1.000000 0.152924 0.081573
1.000000 0.152924 0.081573
0.081573 0.165436 0.097076
0.103058 0.164825 0.093658
0.130188 0.164520 0.090363
0.159088 0.164368 0.089020
0.185913 0.164459 0.086945
0.213074 0.164337 0.085022
0.240112 0.165131 0.084442
0.267578 0.166534 0.083557
0.296906 0.166840 0.082886
0.327820 0.166718 0.081573
0.359589 0.167389 0.081573
0.393463 0.168610 0.081573
0.427521 0.167725 0.081573
0.462128 0.166809 0.081573
0.497314 0.166962 0.081573
0.533417 0.168396 0.081573
0.570770 0.169098 0.081573
0.607330 0.170013 0.081573
0.643890 0.171295 0.081573
0.680328 0.172791 0.081573
0.715698 0.174377 0.081573
0.750977 0.175323 0.081573
0.785278 0.176208 0.081573
0.819763 0.177979 0.081573
0.854279 0.179749 0.081573
0.887146 0.179718 0.081573
0.918762 0.179047 0.081573
0.948334 0.179230 0.081573
0.973877 0.180634 0.081573
1.000000 0.183319 0.081573
1.000000 0.183319 0.081573
1.000000 0.183319 0.081573
0.081573 0.191742 0.097626
0.102234 0.191223 0.094574
0.127350 0.191345 0.090363
0.156219 0.191193 0.089020
0.187134 0.191467 0.088501
0.214294 0.191345 0.086609
0.242279 0.191162 0.085999
0.269989 0.192322 0.085114
0.298157 0.193817 0.084259
0.328613 0.194244 0.082855
0.358704 0.195435 0.081970
0.391907 0.196655 0.081573
0.424896 0.198364 0.081573
0.459351 0.197876 0.081573
0.494202 0.199677 0.081573
0.530273 0.201050 0.081573
0.567902 0.202179 0.081573
0.604431 0.203491 0.081573
0.641388 0.204376 0.081573
0.678833 0.205109 0.081573
0.714996 0.206604 0.081573
0.750793 0.208191 0.081573
0.785095 0.209290 0.081573
0.818237 0.209869 0.081573
0.852448 0.211334 0.081573
0.886200 0.212433 0.081573
0.917969 0.212219 0.081573
0.947723 0.212219 0.081573
0.973694 0.213013 0.081573
1.000000 0.213776 0.081573
1.000000 0.213776 0.081573
1.000000 0.213776 0.081573
0.081573 0.218658 0.099640
0.102234 0.218353 0.095520
0.126434 0.218689 0.090942
0.153992 0.218689 0.089020
0.184875 0.218964 0.088501
0.215363 0.219299 0.088043
0.243347 0.219147 0.087433
0.272522 0.219299 0.086548
0.300995 0.220734 0.085693
0.330414 0.222534 0.084045
0.360626 0.223663 0.083160
0.391174 0.224884 0.081573
0.423950 0.226593 0.081573
0.457581 0.228821 0.081573
0.492371 0.230682 0.081573
0.528381 0.232452 0.081573
0.566132 0.233887 0.081573
0.602753 0.235626 0.081573
0.640198 0.236084 0.081573
0.677063 0.237244 0.081573
0.714813 0.238708 0.081573
0.750549 0.240448 0.081573
0.784851 0.242188 0.081573
0.817993 0.242737 0.081573
0.850677 0.242889 0.081573
0.884308 0.243988 0.081573
0.916626 0.245117 0.081573
0.946533 0.245422 0.081573
0.973083 0.245422 0.081573
1.000000 0.246002 0.081573
1.000000 0.246002 0.081573
1.000000 0.246002 0.081573
0.081573 0.247223 0.101349
0.101929 0.247284 0.095764
0.124481 0.247772 0.091309
0.151947 0.247711 0.089417
0.184906 0.247498 0.088501
0.215393 0.247833 0.088043
0.244873 0.248627 0.088226
0.274048 0.248749 0.087311
0.304230 0.249207 0.086487
0.333679 0.250854 0.084839
0.364441 0.251984 0.083954
0.395020 0.253235 0.082336
0.425659 0.254730 0.081573
0.459320 0.257019 0.081573
0.494263 0.259399 0.081573
0.530396 0.261169 0.081573
0.567200 0.262787 0.081573
0.603821 0.265259 0.081573
0.641235 0.266510 0.081573
0.676270 0.268341 0.081573
0.713684 0.269806 0.081573
0.749420 0.272064 0.081573
0.783722 0.273773 0.081573
0.817474 0.275146 0.081573
0.850159 0.275330 0.081573
0.883087 0.275909 0.081573
0.915405 0.276978 0.081573
0.945770 0.278076 0.081573
0.972412 0.278168 0.081573
1.000000 0.278748 0.081573
1.000000 0.278748 0.081573
1.000000 0.278748 0.081573
0.081573 0.277374 0.101807
0.101929 0.277435 0.096283
0.122833 0.278107 0.092010
0.148193 0.278320 0.089996
0.181885 0.277954 0.088959
0.215973 0.277618 0.088043
0.245453 0.278412 0.088226
0.276459 0.279449 0.088531
0.306610 0.279907 0.087677
0.337036 0.279968 0.086060
0.367798 0.281097 0.085175
0.399292 0.282654 0.083557
0.429810 0.284119 0.082672
0.462250 0.285980 0.081573
0.497192 0.288574 0.081573
0.533081 0.290955 0.081573
0.568848 0.292786 0.081573
0.604919 0.295288 0.081573
0.642365 0.298309 0.081573
0.677612 0.300293 0.081573
0.712402 0.301605 0.081573
0.748138 0.303864 0.081573
0.782654 0.305695 0.081573
0.816406 0.307068 0.081573
0.849854 0.309021 0.081573
0.882782 0.309601 0.081573
0.915161 0.310181 0.081573
0.945557 0.311371 0.081573
0.972443 0.311737 0.081573
1.000000 0.312347 0.081573
1.000000 0.312347 0.081573
1.000000 0.312347 0.081573
0.081573 0.308746 0.103210
0.101929 0.308868 0.097778
0.122833 0.309631 0.092987
0.146912 0.310120 0.090607
0.179047 0.309937 0.089478
0.213806 0.309479 0.088531
0.247009 0.308899 0.088043
0.277985 0.309937 0.088348
0.308655 0.311035 0.088867
0.339081 0.311127 0.087219
0.371063 0.311554 0.085999
0.402679 0.313110 0.084381
0.435638 0.314392 0.083008
0.467896 0.316101 0.081909
0.502045 0.318085 0.081573
0.537476 0.320953 0.081573
0.572754 0.323090 0.081573
0.608490 0.325439 0.081573
0.645721 0.328583 0.081573
0.681152 0.330994 0.081573
0.715912 0.332306 0.081573
0.749786 0.334320 0.081573
0.784302 0.336151 0.081573
0.817169 0.337891 0.081573
0.850586 0.339874 0.081573
0.882629 0.341614 0.081573
0.914978 0.342194 0.081573
0.945709 0.344147 0.081573
0.972656 0.344543 0.081573
1.000000 0.345154 0.081573
1.000000 0.345154 0.081573
1.000000 0.345154 0.081573
0.081573 0.341309 0.105499
0.101929 0.341614 0.100006
0.122833 0.342590 0.094421
0.146118 0.343201 0.091431
0.177887 0.343018 0.090393
0.212677 0.342621 0.089508
0.246094 0.341888 0.088928
0.279877 0.341370 0.088043
0.310547 0.342468 0.088531
0.342041 0.343903 0.089508
0.374054 0.344299 0.088287
0.407654 0.344757 0.086060
0.440857 0.346039 0.084503
0.474701 0.347260 0.082550
0.508453 0.348999 0.081970
0.543182 0.351318 0.081573
0.578033 0.353699 0.081573
0.613525 0.356140 0.081573
0.650085 0.359619 0.081573
0.685394 0.361969 0.081573
0.719147 0.363464 0.081573
0.752991 0.365509 0.081573
0.786896 0.367706 0.081573
0.819672 0.369476 0.081573
0.851807 0.371826 0.081573
0.883820 0.373566 0.081573
0.914917 0.374634 0.081573
0.945435 0.376495 0.081573
0.972687 0.377167 0.081573
1.000000 0.377960 0.081573
1.000000 0.377960 0.081573
1.000000 0.377960 0.081573
0.081573 0.374329 0.108215
0.101929 0.375244 0.102448
0.122833 0.375916 0.096741
0.144318 0.376526 0.093628
0.175110 0.376190 0.091949
0.210846 0.375824 0.090881
0.248016 0.375977 0.089630
0.281860 0.375458 0.088745
0.314453 0.375671 0.087738
0.345978 0.377075 0.088623
0.378235 0.378204 0.089508
0.411865 0.378632 0.087280
0.445801 0.378967 0.087311
0.479889 0.379913 0.085388
0.514069 0.380707 0.081970
0.548615 0.382721 0.081573
0.583923 0.385162 0.081573
0.618988 0.387329 0.081573
0.655212 0.390350 0.081573
0.690521 0.393219 0.081573
0.724396 0.394897 0.081573
0.756653 0.396881 0.081573
0.790558 0.399109 0.081573
0.823303 0.401062 0.081573
0.855438 0.403442 0.081573
0.886749 0.405548 0.081573
0.917816 0.406647 0.081573
0.946014 0.407593 0.081573
0.972900 0.408295 0.081573
1.000000 0.409515 0.081573
1.000000 0.409515 0.081573
1.000000 0.409515 0.081573
0.081573 0.409515 0.112000
0.101929 0.410339 0.106171
0.122833 0.410675 0.100250
0.144318 0.410736 0.095917
0.175201 0.410309 0.094025
0.211060 0.409882 0.092499
0.248383 0.410126 0.091217
0.284668 0.410706 0.089996
0.317413 0.410919 0.089020
0.350281 0.411041 0.087036
0.382568 0.412170 0.087921
0.416443 0.413452 0.089508
0.450531 0.413666 0.089966
0.485535 0.414001 0.090515
0.519714 0.414429 0.085144
0.554535 0.415466 0.081573
0.590546 0.418152 0.081573
0.626160 0.420471 0.081573
0.661377 0.422211 0.081573
0.696259 0.424927 0.081573
0.731232 0.428070 0.081573
0.763367 0.429932 0.081573
0.794281 0.431000 0.081573
0.827026 0.432983 0.081573
0.858887 0.435364 0.081573
0.890198 0.437469 0.081573
0.920166 0.438934 0.081573
0.948212 0.439941 0.081573
0.973755 0.440613 0.081573
1.000000 0.441772 0.081573
1.000000 0.441772 0.081573
1.000000 0.441772 0.081573
0.081573 0.445435 0.116180
0.101929 0.446045 0.110229
0.122833 0.446381 0.104675
0.144318 0.446106 0.099030
0.176758 0.445862 0.094757
0.212585 0.445496 0.093323
0.249725 0.446075 0.092346
0.286011 0.446655 0.091095
0.321045 0.445984 0.090607
0.354065 0.445892 0.088806
0.386902 0.446869 0.088806
0.420868 0.448120 0.090179
0.454651 0.448120 0.090179
0.489746 0.448578 0.090729
0.525146 0.449493 0.089142
0.560455 0.449921 0.085541
0.597260 0.451752 0.083771
0.633636 0.454346 0.083130
0.669342 0.456268 0.081573
0.702057 0.457703 0.081573
0.736450 0.460388 0.081573
0.769562 0.462433 0.081573
0.800507 0.463593 0.081573
0.832306 0.465332 0.081573
0.864136 0.467712 0.081573
0.894135 0.469818 0.081573
0.923920 0.471283 0.081573
0.950500 0.472687 0.081573
0.975128 0.473602 0.081573
1.000000 0.474548 0.081573
1.000000 0.474548 0.081573
1.000000 0.474548 0.081573
0.081573 0.481964 0.119843
0.101929 0.482269 0.114502
0.122833 0.482605 0.109222
0.144318 0.482788 0.103516
0.177002 0.482605 0.099030
0.215088 0.482605 0.095734
0.252380 0.483124 0.094604
0.288544 0.483673 0.092804
0.323425 0.482910 0.091980
0.357910 0.481598 0.091003
0.391632 0.482391 0.091003
0.426086 0.483459 0.091003
0.459808 0.483521 0.091003
0.493774 0.483826 0.091003
0.529572 0.484802 0.090698
0.566162 0.485443 0.090515
0.603516 0.486694 0.087280
0.640198 0.488434 0.085876
0.676758 0.490631 0.081573
0.710358 0.492218 0.081573
0.742096 0.493103 0.081573
0.774719 0.494995 0.081573
0.806213 0.496796 0.081573
0.837830 0.498444 0.081573
0.869019 0.500122 0.081573
0.898987 0.502167 0.081573
0.927643 0.503540 0.081573
0.954102 0.504608 0.081573
0.976837 0.505981 0.081573
1.000000 0.507629 0.081573
1.000000 0.507629 0.081573
1.000000 0.507629 0.081573
0.081573 0.519165 0.122162
0.102936 0.519287 0.117340
0.132324 0.520447 0.112091
0.153809 0.520782 0.106293
0.181610 0.521118 0.101349
0.218964 0.521149 0.097992
0.256531 0.520966 0.097107
0.292480 0.521179 0.095734
0.327301 0.520966 0.092865
0.361908 0.520172 0.090698
0.397858 0.520355 0.091217
0.432892 0.521149 0.091583
0.466919 0.521576 0.091797
0.501038 0.521942 0.091888
0.535370 0.521942 0.091278
0.572144 0.522552 0.091095
0.609863 0.522919 0.091125
0.646362 0.523926 0.089600
0.682220 0.525421 0.084839
0.717377 0.527283 0.083221
0.749878 0.528320 0.081573
0.781311 0.529358 0.081573
0.812592 0.530853 0.081573
0.843201 0.532013 0.081573
0.874084 0.533630 0.081573
0.902191 0.535522 0.081573
0.929565 0.536865 0.081573
0.955688 0.537659 0.081573
0.978058 0.539246 0.081573
1.000000 0.541412 0.081573
1.000000 0.541412 0.081573
1.000000 0.541412 0.081573
0.081573 0.557281 0.124847
0.102936 0.557404 0.121460
0.134338 0.558746 0.116211
0.161011 0.559509 0.109619
0.188934 0.559845 0.104492
0.223450 0.560333 0.100708
0.262024 0.560364 0.099609
0.297333 0.560089 0.098999
0.331635 0.560028 0.096130
0.366913 0.559845 0.091736
0.404083 0.559479 0.091034
0.439941 0.559784 0.091980
0.473663 0.560059 0.092194
0.508484 0.560486 0.092468
0.542999 0.560364 0.091888
0.578766 0.560425 0.091492
0.616608 0.560486 0.092712
0.653412 0.561188 0.092194
0.688660 0.562042 0.087036
0.722656 0.562714 0.085419
0.756500 0.563965 0.081573
0.788757 0.565002 0.081573
0.819458 0.565796 0.081573
0.849792 0.566833 0.081573
0.879913 0.568054 0.081573
0.907684 0.569641 0.081573
0.932678 0.571106 0.081573
0.956818 0.572479 0.081573
0.978851 0.574249 0.081573
1.000000 0.575531 0.081573
1.000000 0.575531 0.081573
1.000000 0.575531 0.081573
0.101776 0.597778 0.128815
0.122345 0.597748 0.125671
0.145203 0.597412 0.120087
0.170685 0.597931 0.113464
0.195984 0.598541 0.107117
0.228912 0.599182 0.102753
0.266479 0.599701 0.101562
0.300354 0.599823 0.100952
0.334473 0.599487 0.098907
0.369751 0.598816 0.095734
0.408508 0.597961 0.093964
0.445984 0.597839 0.094025
0.479401 0.597839 0.093781
0.514038 0.598083 0.093689
0.549225 0.598816 0.093994
0.585205 0.599182 0.093933
0.621429 0.598419 0.093109
0.658356 0.598877 0.093658
0.693939 0.598389 0.093903
0.727692 0.598969 0.092590
0.761536 0.600464 0.089233
0.794617 0.600922 0.085602
0.825928 0.601105 0.081573
0.854370 0.601685 0.081573
0.882660 0.602509 0.081573
0.909485 0.604004 0.081573
0.933319 0.605438 0.081573
0.956970 0.606873 0.081573
0.979004 0.608307 0.081573
1.000000 0.609375 0.081573
1.000000 0.609375 0.081573
1.000000 0.609375 0.081573
0.120453 0.636963 0.133820
0.140686 0.636963 0.129547
0.163513 0.636658 0.123962
0.186005 0.636719 0.117828
0.210449 0.637268 0.111694
0.239502 0.637634 0.106720
0.273071 0.637573 0.104645
0.306427 0.637878 0.103668
0.340729 0.637695 0.101105
0.375763 0.637024 0.098450
0.413361 0.636719 0.096313
0.451721 0.636230 0.095734
0.486145 0.635712 0.094910
0.519928 0.635681 0.094299
0.554443 0.636169 0.094482
0.590118 0.636322 0.094696
0.626282 0.635468 0.093536
0.661621 0.635864 0.093323
0.697327 0.634979 0.095093
0.732544 0.635040 0.094666
0.766449 0.636566 0.091522
0.799774 0.636810 0.088348
0.831360 0.636505 0.082550
0.859406 0.636566 0.081573
0.886078 0.637115 0.081573
0.911072 0.638336 0.081573
0.934296 0.639679 0.081573
0.956970 0.640228 0.081573
0.979004 0.641602 0.081573
1.000000 0.642334 0.081573
1.000000 0.642334 0.081573
1.000000 0.642334 0.081573
0.129639 0.674408 0.138611
0.149902 0.674408 0.134369
0.172424 0.674408 0.128815
0.194763 0.674591 0.122650
0.217468 0.674957 0.116333
0.244293 0.675079 0.111115
0.277985 0.674896 0.107971
0.311584 0.674896 0.104584
0.345490 0.674896 0.102814
0.379150 0.674896 0.102753
0.416321 0.674347 0.099640
0.453430 0.673218 0.096191
0.488770 0.672394 0.095398
0.524292 0.671814 0.094757
0.558807 0.671814 0.095367
0.594482 0.671600 0.095978
0.630615 0.670746 0.093140
0.665955 0.671112 0.092529
0.701233 0.671112 0.092529
0.736206 0.670837 0.093262
0.769073 0.670959 0.094971
0.802368 0.671204 0.092682
0.833984 0.670898 0.089020
0.861206 0.670685 0.086029
0.886078 0.670654 0.081573
0.911072 0.671753 0.081573
0.934296 0.672760 0.081573
0.956970 0.673218 0.081573
0.979004 0.673920 0.081573
1.000000 0.674591 0.081573
1.000000 0.674591 0.081573
1.000000 0.674591 0.081573
0.138306 0.709961 0.140900
0.159790 0.710541 0.139435
0.181641 0.710663 0.133636
0.203186 0.710663 0.127075
0.225403 0.711212 0.119690
0.250183 0.711456 0.114349
0.279968 0.711761 0.112122
0.313202 0.711517 0.108459
0.346252 0.710602 0.105072
0.379822 0.710663 0.104889
0.415649 0.710205 0.102692
0.452820 0.708984 0.099487
0.488647 0.707947 0.097931
0.525757 0.707092 0.096130
0.562500 0.706390 0.094788
0.598175 0.706635 0.095367
0.634186 0.706757 0.094604
0.669312 0.706238 0.094818
0.704346 0.705841 0.093781
0.739197 0.705536 0.094055
0.771851 0.705536 0.095306
0.803497 0.705353 0.094299
0.835297 0.704956 0.090637
0.862885 0.704407 0.088684
0.887268 0.704224 0.084229
0.911072 0.704498 0.081573
0.934296 0.705414 0.081573
0.956970 0.705048 0.081573
0.979004 0.705627 0.081573
1.000000 0.706848 0.081573
1.000000 0.706848 0.081573
1.000000 0.706848 0.081573
0.144867 0.743439 0.144440
0.166565 0.743988 0.142975
0.187134 0.744293 0.136749
0.208160 0.744568 0.129730
0.230225 0.745361 0.121674
0.254578 0.746124 0.114349
0.284088 0.746521 0.112457
0.315063 0.746979 0.111542
0.348206 0.746002 0.108063
0.382629 0.745331 0.106598
0.418274 0.744873 0.104675
0.453857 0.743256 0.103851
0.489868 0.742218 0.101654
0.527313 0.741425 0.096832
0.564789 0.740265 0.094574
0.601624 0.739624 0.093964
0.637360 0.741302 0.096802
0.672394 0.741394 0.097900
0.706329 0.739258 0.092285
0.740936 0.738892 0.092529
0.774719 0.738983 0.092529
0.806030 0.738770 0.092346
0.835297 0.738312 0.094482
0.862885 0.737732 0.092896
0.887268 0.737000 0.090515
0.911072 0.737213 0.087402
0.934296 0.737183 0.081573
0.956970 0.736816 0.081573
0.979004 0.736450 0.081573
1.000000 0.737396 0.081573
1.000000 0.737396 0.081573
1.000000 0.737396 0.081573
0.149506 0.777496 0.147980
0.171967 0.777740 0.146851
0.193024 0.777740 0.142212
0.214569 0.778290 0.134796
0.236786 0.779053 0.126495
0.260986 0.779877 0.118774
0.287506 0.780060 0.113037
0.318481 0.780518 0.112152
0.350128 0.779907 0.110596
0.384521 0.779266 0.109131
0.420441 0.779114 0.108154
0.456207 0.777527 0.107178
0.492035 0.776093 0.103394
0.529266 0.775391 0.097931
0.567474 0.774384 0.093811
0.604645 0.773071 0.093201
0.640289 0.773193 0.094513
0.675537 0.773834 0.095490
0.709839 0.772308 0.092133
0.743286 0.771606 0.090515
0.776978 0.771637 0.090027
0.807343 0.771454 0.090820
0.836426 0.770966 0.092957
0.862885 0.769989 0.089630
0.887268 0.769226 0.087250
0.911072 0.768646 0.088806
0.934296 0.768585 0.083496
0.956970 0.768005 0.082397
0.979004 0.767487 0.081573
1.000000 0.768036 0.081573
1.000000 0.768036 0.081573
1.000000 0.768036 0.081573
0.155426 0.811096 0.149933
0.177399 0.811432 0.149261
0.198944 0.811127 0.146301
0.221008 0.811371 0.140839
0.243164 0.812073 0.132538
0.265869 0.812561 0.125488
0.292328 0.812744 0.119690
0.320007 0.812744 0.113922
0.351837 0.812195 0.112091
0.385529 0.811615 0.110138
0.421234 0.811310 0.108887
0.458405 0.811066 0.107910
0.494080 0.809662 0.104156
0.529266 0.808594 0.099365
0.568115 0.807556 0.094849
0.607025 0.806061 0.091980
0.642456 0.804688 0.091583
0.677612 0.804626 0.091827
0.712860 0.804596 0.093964
0.746399 0.803711 0.092346
0.779358 0.803436 0.088531
0.809692 0.803253 0.089294
0.836426 0.802460 0.090515
0.862885 0.801453 0.087097
0.887268 0.800385 0.082062
0.911072 0.799805 0.083618
0.934296 0.799408 0.086548
0.956970 0.798767 0.085449
0.979004 0.797729 0.082001
1.000000 0.797821 0.081573
1.000000 0.797821 0.081573
1.000000 0.797821 0.081573
0.159698 0.841888 0.148102
0.180786 0.842499 0.148834
0.202850 0.842682 0.148071
0.225006 0.842957 0.143219
0.246857 0.843231 0.135223
0.269257 0.843719 0.128357
0.293732 0.843903 0.122528
0.321381 0.843903 0.116760
0.354919 0.843903 0.112610
0.388672 0.843353 0.110687
0.422180 0.841949 0.108063
0.459198 0.841675 0.107147
0.495026 0.841400 0.104309
0.529999 0.840271 0.100067
0.568115 0.839111 0.097717
0.607880 0.837341 0.092712
0.644623 0.835876 0.087769
0.679504 0.835541 0.087891
0.714203 0.835388 0.089752
0.748077 0.834106 0.090363
0.781097 0.833832 0.087311
0.810638 0.833282 0.085785
0.837402 0.832458 0.086914
0.862885 0.831665 0.086914
0.887268 0.830597 0.081848
0.911072 0.829681 0.081848
0.934296 0.829193 0.084534
0.956970 0.828400 0.084534
0.979004 0.827362 0.082001
1.000000 0.826660 0.081573
1.000000 0.826660 0.081573
1.000000 0.826660 0.081573
0.162109 0.871582 0.144867
0.183044 0.872131 0.145416
0.205597 0.872803 0.146729
0.228271 0.873291 0.144531
0.249969 0.873474 0.136475
0.272064 0.873657 0.129272
0.296539 0.873840 0.123474
0.323700 0.874054 0.115112
0.357086 0.874054 0.110809
0.391357 0.873993 0.109375
0.424957 0.872650 0.106842
0.459534 0.871582 0.106812
0.495361 0.871368 0.103943
0.530212 0.870422 0.098969
0.568237 0.869263 0.096985
0.607880 0.867645 0.092712
0.645630 0.866180 0.083893
0.681427 0.865509 0.082245
0.714935 0.865051 0.083557
0.748810 0.863953 0.084137
0.781952 0.863556 0.085510
0.811493 0.863007 0.083984
0.837402 0.861511 0.081573
0.862885 0.860718 0.081573
0.887268 0.860046 0.081573
0.911072 0.859131 0.081573
0.934296 0.858002 0.081573
0.956970 0.857086 0.081573
0.979004 0.856049 0.081573
1.000000 0.855194 0.081573
1.000000 0.855194 0.081573
1.000000 0.855194 0.081573
0.165192 0.901245 0.147552
0.185791 0.901581 0.146973
0.208618 0.902252 0.145203
0.231384 0.902496 0.144135
0.253357 0.902496 0.137146
0.275513 0.902740 0.129913
0.298767 0.903107 0.124817
0.325928 0.903320 0.116425
0.355927 0.903107 0.109253
0.390198 0.903046 0.107788
0.425110 0.902466 0.104828
0.459656 0.901428 0.104828
0.494568 0.900635 0.102478
0.529572 0.899628 0.097382
0.567688 0.897980 0.093567
0.607513 0.896667 0.089142
0.646149 0.895660 0.083740
0.682861 0.893951 0.081879
0.716309 0.893219 0.082855
0.749725 0.892334 0.082855
0.782806 0.891937 0.084137
0.812103 0.891693 0.083984
0.837952 0.890198 0.081573
0.862885 0.889038 0.081573
0.887268 0.888367 0.081573
0.911072 0.887482 0.081573
0.934296 0.886353 0.081573
0.956970 0.884918 0.081573
0.979004 0.883820 0.081573
1.000000 0.882538 0.081573
1.000000 0.882538 0.081573
1.000000 0.882538 0.081573
0.167206 0.929596 0.154053
0.187775 0.929901 0.153473
0.210968 0.930573 0.147552
0.233887 0.930847 0.143219
0.255951 0.930847 0.136292
0.278320 0.931000 0.128998
0.301361 0.931335 0.123993
0.325806 0.931305 0.117584
0.355835 0.931091 0.110382
0.387634 0.930969 0.107391
0.422577 0.930420 0.104401
0.458099 0.929626 0.101562
0.493225 0.928772 0.098969
0.529144 0.927582 0.092865
0.567139 0.925690 0.087921
0.606567 0.923950 0.082336
0.646362 0.923401 0.081573
0.683929 0.921875 0.081573
0.717010 0.920135 0.081573
0.750336 0.919250 0.081573
0.782471 0.918488 0.081573
0.811798 0.918304 0.081573
0.837952 0.917664 0.081573
0.862885 0.916504 0.081573
0.887268 0.915558 0.081573
0.911072 0.914673 0.081573
0.934296 0.913239 0.081573
0.956970 0.911804 0.081573
0.979004 0.910400 0.081573
1.000000 0.909088 0.081573
1.000000 0.909088 0.081573
1.000000 0.909088 0.081573
0.170288 0.956177 0.154388
0.190613 0.956177 0.154022
0.213104 0.956696 0.148560
0.235535 0.956970 0.143097
0.257660 0.956970 0.137512
0.279968 0.956970 0.129578
0.303253 0.956970 0.123138
0.327698 0.956970 0.117065
0.357269 0.956970 0.109436
0.389008 0.956818 0.106293
0.422485 0.956238 0.102509
0.458069 0.955444 0.098511
0.493500 0.954712 0.091705
0.528992 0.953735 0.086578
0.566010 0.952637 0.083954
0.604431 0.950928 0.081573
0.643127 0.950470 0.081573
